images/linkedin-socialmedia.svg

<svg xmlns="http://www.w3.org/2000/svg" viewBox="0 -90 792 792" enable-background="new 0 -90 792 792"><style type="text/css">.st0{fill:#F7A9A4;}</style><path class="st0" d="M207.7 600h-129.5v-415.8h129.5v415.8zm-66.7-466.8c-47.1 0-78.5-31.4-78.5-70.6 0-43.2 31.4-74.6 78.5-74.6s78.5 31.4 78.5 70.6c0 43.2-31.4 74.6-78.5 74.6zm588.5 466.8h-149.1v-215.8c0-54.9-23.5-94.2-74.5-94.2-39.2 0-58.8 27.5-70.6 51v259h-145.2v-415.8h145.2v66.7c7.8-27.5 54.9-70.6 129.5-70.6 94.2 0 164.8 58.8 164.8 188.3v231.4z" id="Capa_1"/></svg>

<?xml version="1.0" encoding="utf-8"?>
<!-- Generator: Adobe Illustrator 18.1.1, SVG Export Plug-In . SVG Version: 6.00 Build 0)  -->
<!DOCTYPE svg PUBLIC "-//W3C//DTD SVG 1.1//EN" "http://www.w3.org/Graphics/SVG/1.1/DTD/svg11.dtd">
<svg version="1.1" id="Layer_1" xmlns="http://www.w3.org/2000/svg" xmlns:xlink="http://www.w3.org/1999/xlink" x="0px" y="0px"
	 viewBox="0 -90 792 792" style="enable-background:new 0 -90 792 792;" xml:space="preserve">
<style type="text/css">
	.st0{fill:#F7A9A4;}
</style>
<g id="Layer_1_1_">
</g>
<g id="Capa_1">
	<path class="st0" d="M207.7,600H78.2V184.2h129.5V600z M141,133.2L141,133.2c-47.1,0-78.5-31.4-78.5-70.6C62.5,19.4,93.9-12,141-12
		s78.5,31.4,78.5,70.6C219.5,101.8,188.1,133.2,141,133.2z M729.5,600H580.4V384.2c0-54.9-23.5-94.2-74.5-94.2
		c-39.2,0-58.8,27.5-70.6,51c0,7.8,0,23.5,0,35.3V600H290.1c0,0,0-380.5,0-415.8h145.2v66.7c7.8-27.5,54.9-70.6,129.5-70.6
		c94.2,0,164.8,58.8,164.8,188.3V600z"/>
</g>
</svg>
